X: 11605
T: Egg, The
R: jig
M: 6/8
K: Bminor
c|:BAF FEF|~A2B d2e|~f3 ~f2e|dBe dBA|
BAF FEF|~A2B d2e|~f3 ~f2e|1 dBA B2c:|2 dBA Bde||
|:faa baa|faa eaa|faa baa|faf edB|
BAF FEF|~A2B d2e|~f3 ~f2e|1 dBA Bde:|2 dBA B2c||

